build/img/star.svg

<svg width="18" height="18" viewBox="0 0 18 18" fill="none" xmlns="http://www.w3.org/2000/svg">
<path opacity="0.2" d="M8.56794 1.73524C8.76081 1.4041 9.23919 1.4041 9.43206 1.73524L11.579 5.42127C11.7909 5.78517 12.1461 6.04322 12.5577 6.13234L16.7267 7.03514C17.1013 7.11624 17.2491 7.5712 16.9938 7.85696L14.1516 11.0378C13.871 11.3519 13.7353 11.7694 13.7777 12.1884L14.2074 16.4324C14.246 16.8136 13.859 17.0948 13.5084 16.9403L9.60487 15.2202C9.2195 15.0503 8.7805 15.0503 8.39513 15.2202L4.49164 16.9403C4.14097 17.0948 3.75395 16.8136 3.79255 16.4324L4.22226 12.1884C4.26468 11.7694 4.12902 11.3519 3.84842 11.0378L1.00623 7.85696C0.750905 7.5712 0.898731 7.11624 1.27326 7.03514L5.44232 6.13234C5.85391 6.04322 6.20907 5.78517 6.42102 5.42127L8.56794 1.73524Z" stroke="white"/>
</svg>

<svg width="18" height="18" fill="none" xmlns="http://www.w3.org/2000/svg"><path opacity=".2" d="M8.568 1.735a.5.5 0 0 1 .864 0l2.147 3.686a1.5 1.5 0 0 0 .979.711l4.169.903a.5.5 0 0 1 .267.822l-2.842 3.18a1.5 1.5 0 0 0-.374 1.151l.43 4.244a.5.5 0 0 1-.7.508l-3.903-1.72a1.5 1.5 0 0 0-1.21 0l-3.903 1.72a.5.5 0 0 1-.7-.508l.43-4.244a1.5 1.5 0 0 0-.374-1.15L1.006 7.857a.5.5 0 0 1 .267-.822l4.17-.903a1.5 1.5 0 0 0 .978-.71l2.147-3.687Z" stroke="#fff"/></svg>
